X: 42
T:Crooked Road to Dublin, The
T:Crooked Road, The
M:C|
L:1/8
R:Reel
K:G
G3G FGAF|G2FG AdcA|G2AG FGAg|fdcA dBcA|!
G2~G2 FGAF|G2FG AdcA|G2AG FGAg|fdcA d2Bc|]!
dg~g2 fgaf|dg~g2 agfe|dg~g2 fgag|fdcA d2Bc|!
dg~g2 fgaf|dg~g2 a2ga|bgaf gbag|fdcA dBcA|]!
